UserChromeFiles/FullTheme/chrome/user_chrome_files/custom_styles/svg/chat.svg

<svg xmlns="http://www.w3.org/2000/svg" width="16" height="16" viewBox="0 0 16 16" fill="context-fill #8e8e98" fill-opacity="context-fill-opacity">
    <path d="M 7.5 0.94726562 C 3.4051875 0.94726562 0 4.0677344 0 7.9785156 C 0 11.889766 3.4051875 15.009766 7.5 15.009766 A 0.93759375 0.93759375 0 0 0 7.5019531 15.009766 C 8.0757031 15.008828 8.6385156 14.899141 9.1972656 14.775391 C 10.348516 15.533828 11.694453 16.216563 13.291016 15.929688 A 0.93759375 0.93759375 0 0 0 13.806641 14.365234 C 13.260081 13.787734 12.971953 13.426953 12.955078 12.658203 C 14.202891 11.375703 14.998125 9.7438281 15 7.9785156 C 15 4.0677344 11.595 0.94726562 7.5 0.94726562 z M 7.5 2.9453125 C 10.578405 2.9453125 12.998913 5.2275022 13 7.9765625 C 12.9988 9.1420178 12.473953 10.286679 11.521484 11.265625 L 10.9375 11.865234 L 10.955078 12.701172 C 10.961978 13.018036 11.115323 13.290459 11.203125 13.587891 C 10.911627 13.444641 10.62978 13.324786 10.296875 13.105469 L 9.5917969 12.638672 L 8.765625 12.820312 C 8.2411543 12.936473 7.8208158 13.009045 7.5 13.009766 C 4.421107 13.009766 2 10.728947 2 7.9785156 C 2 5.2286916 4.4211375 2.9453125 7.5 2.9453125 z M 4.4785156 8.4941406 A 0.50005 0.50005 0 0 0 4.0253906 9.1582031 C 4.0253906 9.1582031 4.2095038 9.6773428 4.7363281 10.128906 C 5.2631524 10.58047 6.15 11 7.5 11 C 8.85 11 9.7368475 10.58047 10.263672 10.128906 C 10.790496 9.6773428 10.974609 9.1582031 10.974609 9.1582031 A 0.50028184 0.50028184 0 0 0 10.025391 8.8417969 C 10.025391 8.8417969 9.959504 9.0726574 9.6113281 9.3710938 C 9.2631524 9.66953 8.65 10 7.5 10 C 6.35 10 5.7368476 9.66953 5.3886719 9.3710938 C 5.0404962 9.0726574 4.9746094 8.8417969 4.9746094 8.8417969 A 0.50005 0.50005 0 0 0 4.4785156 8.4941406 z"/>
</svg>

<svg xmlns="http://www.w3.org/2000/svg" width="16" height="16" fill="context-fill #8e8e98" fill-opacity="context-fill-opacity" viewBox="0 0 16 16">
    <path d="M7.5.947C3.41.947 0 4.07 0 7.98 0 11.9 3.41 15 7.5 15c.58 0 1.14-.1 1.7-.2 1.1.7 2.5 1.4 4.1 1.1.7-.1 1-1 .5-1.5-.5-.6-.8-1-.8-1.7 1.2-1.3 2-2.96 2-4.72C15 4.07 11.6.947 7.5.947M7.52 2C10.6 2 14 5 14 8c0 1.48-1 3.2-2 4v2l-2-.6s-.81.4-2.56.6C4.36 14 1 11 1 8s3.44-6 6.52-6M4.48 8.49c-.34 0-.57.35-.45.67 0 0 .18.52.71.94.52.5 1.41.9 2.76.9s2.24-.4 2.8-.9c.5-.42.7-.94.7-.94.2-.63-.8-.95-1-.32 0 0 0 .23-.39.53-.35.3-.96.63-2.11.63s-1.76-.33-2.11-.63-.42-.53-.42-.53a.51.51 0 0 0-.49-.35"/>
</svg>
